svgs/thin/face-anxious-sweat.svg

<svg xmlns="http://www.w3.org/2000/svg" viewBox="0 0 576 512"><!--! Font Awesome Pro 6.1.1 by @fontawesome - https://fontawesome.com License - https://fontawesome.com/license (Commercial License) Copyright 2022 Fonticons, Inc. --><path d="M288 16C165.1 16 65.17 107.1 49.98 225C49.42 229.4 45.41 232.5 41.02 231.9C36.64 231.4 33.55 227.4 34.11 222.1C50.32 97.19 157.8 0 288 0C429.4 0 544 114.6 544 256C544 397.4 429.4 512 288 512C217.6 512 153.9 483.6 107.6 437.7C104.5 434.6 104.5 429.5 107.6 426.4C110.7 423.2 115.8 423.2 118.9 426.3C162.3 469.4 222 496 288 496C420.5 496 528 388.5 528 255.1C528 123.5 420.5 15.1 288 15.1V16zM197.7 162.3C200.8 165.5 200.8 170.5 197.7 173.7L190.3 181C167.9 203.4 139 218.3 107.8 223.5L105.3 223.9C100.1 224.6 96.84 221.7 96.11 217.3C95.38 212.1 98.33 208.8 102.7 208.1L105.2 207.7C133.1 203 158.9 189.8 178.1 169.7L186.3 162.3C189.5 159.2 194.5 159.2 197.7 162.3V162.3zM378.3 173.7C375.2 170.5 375.2 165.5 378.3 162.3C381.5 159.2 386.5 159.2 389.7 162.3L397 169.7C417.1 189.8 442.9 203 470.8 207.7L473.3 208.1C477.7 208.8 480.6 212.1 479.9 217.3C479.2 221.7 475 224.6 470.7 223.9L468.2 223.5C436.1 218.3 408.1 203.4 385.7 181L378.3 173.7zM55.47 260.1C59.73 254.6 68.27 254.6 72.53 260.1C90.09 281.8 128 332.3 128 357.3C128 389.8 99.28 416 64 416C28.72 416 0 389.8 0 357.3C0 332.3 38.07 281.8 55.47 260.1zM34.73 316C29.1 324.9 24.23 333.5 20.83 341.1C17.24 349.1 16 354.5 16 357.3C16 379.6 36.21 400 64 400C91.79 400 112 379.6 112 357.3C112 354.4 110.8 349.1 107.2 341.1C103.8 333.5 98.94 324.9 93.33 316C83.71 300.8 72.44 285.7 64.02 275.1C55.61 285.8 44.36 300.8 34.73 316H34.73zM367.6 288C358.8 288 351.6 280.8 351.6 272C351.6 263.2 358.8 256 367.6 256C376.5 256 383.6 263.2 383.6 272C383.6 280.8 376.5 288 367.6 288zM207.6 256C216.5 256 223.6 263.2 223.6 272C223.6 280.8 216.5 288 207.6 288C198.8 288 191.6 280.8 191.6 272C191.6 263.2 198.8 256 207.6 256zM292.2 320C338.5 320 376 357.5 376 403.8C376 410.5 370.5 416 363.8 416H212.2C205.5 416 200 410.5 200 403.8C200 357.5 237.5 320 283.8 320H292.2zM292.2 336H283.8C247.6 336 218.1 364.3 216.1 400H359.9C357.9 364.3 328.4 336 292.2 336H292.2z"/></svg>

<svg xmlns="http://www.w3.org/2000/svg" viewBox="0 0 576 512"><!--! Font Awesome Pro 6.4.2 by @fontawesome - https://fontawesome.com License - https://fontawesome.com/license (Commercial License) Copyright 2023 Fonticons, Inc. --><path d="M288 16C166 16 65.2 107.1 50 225c-.6 4.4-4.6 7.5-9 6.9s-7.5-4.6-6.9-9C50.3 97.2 157.8 0 288 0C429.4 0 544 114.6 544 256s-114.6 256-256 256c-70.4 0-134.1-28.4-180.4-74.3c-3.1-3.1-3.2-8.2 0-11.3s8.2-3.2 11.3 0C162.3 469.4 222 496 288 496c132.5 0 240-107.5 240-240S420.5 16 288 16zM197.7 162.3c3.1 3.1 3.1 8.2 0 11.3l-7.4 7.4c-22.4 22.4-51.2 37.2-82.5 42.5l-2.5 .4c-4.4 .7-8.5-2.2-9.2-6.6s2.2-8.5 6.6-9.2l2.5-.4c28-4.7 53.8-17.9 73.8-38l7.4-7.4c3.1-3.1 8.2-3.1 11.3 0zm180.7 11.3c-3.1-3.1-3.1-8.2 0-11.3s8.2-3.1 11.3 0l7.4 7.4c20 20 45.8 33.3 73.8 38l2.5 .4c4.4 .7 7.3 4.8 6.6 9.2s-4.8 7.3-9.2 6.6l-2.5-.4c-31.3-5.2-60.1-20.1-82.5-42.5l-7.4-7.4zM64 275.1c-8.4 10.7-19.7 25.7-29.3 40.9c-5.6 8.9-10.5 17.5-13.9 25.1c-3.6 8-4.8 13.3-4.8 16.1C16 379.6 36.2 400 64 400s48-20.4 48-42.7c0-2.8-1.2-8.2-4.8-16.2c-3.4-7.6-8.2-16.2-13.9-25.1c-9.6-15.2-20.9-30.3-29.3-40.9zm-8.5-15c4.3-5.5 12.8-5.5 17.1 0c17.6 21.7 55.5 72.2 55.5 97.2c0 32.5-28.7 58.7-64 58.7s-64-26.2-64-58.7c0-25 38.1-75.5 55.5-97.2zM367.6 256a16 16 0 1 1 0 32 16 16 0 1 1 0-32zm-144 16a16 16 0 1 1 -32 0 16 16 0 1 1 32 0zm60.2 48h8.4c46.3 0 83.8 37.5 83.8 83.8c0 6.7-5.5 12.2-12.2 12.2H212.2c-6.7 0-12.2-5.5-12.2-12.2c0-46.3 37.5-83.8 83.8-83.8zm76.1 80c-2-35.7-31.5-64-67.7-64h-8.4c-36.2 0-65.7 28.3-67.7 64H359.9z"/></svg>
